svg/500/sharp/health_and_beauty-fill.svg

<svg xmlns="http://www.w3.org/2000/svg" width="48" height="48" viewBox="0 -960 960 960"><path d="M649.565-74.022v-62.869H823.37v-102.565H649.565v-62.87H823.37V-405.37H649.565V-468H823.37v-103.043H649.565v-62.631H823.37v-102.804H649.565v-62.87H925.5v725.326H649.565Zm-459.739 0L34.5-513.913 240.26-638.5v-246.718h130.217V-638.5L576-513.913 420.674-74.022H189.826Z"/></svg>

<svg xmlns="http://www.w3.org/2000/svg" width="48" height="48" viewBox="0 -960 960 960"><path d="M649.57-74.02v-62.87h173.8v-102.57h-173.8v-62.87h173.8v-103.04h-173.8V-468h173.8v-103.04h-173.8v-62.63h173.8v-102.81h-173.8v-62.87H925.5v725.33H649.57Zm-459.74 0L34.5-513.91 240.26-638.5v-246.72h130.22v246.72L576-513.91 420.67-74.02H189.83Z"/></svg>
